X:55
T:No Name
S:Dervish
M:6/8
L:1/8
K:G
~G2G dGG |edB dBA |~G2G dGg |edB dBA |~G2G dGG |
edB def |~g2e dBA |Bee dBA |~G2G dGG |edB dBA |
~G2G dGg |edB AGE |~G2G dGG |edB def |~g2e dBA |Bee dBA ||
~g2g bge |~f2f afd |~g2g bge |edB GBd |~g2a bge |
~f2g afa |bag agf |efg dBd |~g2g bge |~f2f fga |
~g2g bge |edB GBd |~g2a bge |~f2g afa |bag agf |efg dBA ||
